X:55
T: Kilkee Farmer
C: BB
R: hornpipe
Q: 1/8=320
M: C
L: 1/8
K: G
D|"G"GABd "Am"cBAB|"G"GBdg "Bm"fgdB|"C"cBAc "G"BAGB|"Am"AGAB AGEF|
"G"GABd "Am"cBAB |"G"GBdg "Bm"fgdB|"Am"ceag "D7"fdcA|"G"(3Bcd "D"cA "G"G3 :|
d|"Em"edBd efge|"D"fd^cd fgaf|"Em"edBd efga|"Bm"bagf "Em"e2 dB|
"G"GABd "Am"cBAB |"G"GBdg "Bm"fgdB|"Am"ceag "D7"fdcA|"G"(3Bcd "D"cA "G"G3 :|
